components/icon/style/assets/cross-circle-o.svg

<?xml version="1.0" encoding="UTF-8"?>
<svg width="48px" height="48px" viewBox="0 0 48 48" version="1.1" xmlns="http://www.w3.org/2000/svg" xmlns:xlink="http://www.w3.org/1999/xlink">
    <!-- Generator: Sketch 41.2 (35397) - http://www.bohemiancoding.com/sketch -->
    <title>step-48-错误-实心</title>
    <desc>Created with Sketch.</desc>
    <defs></defs>
    <g id="Page-1" stroke="none" stroke-width="1" fill-rule="evenodd">
        <g id="step-48-错误-实心">
            <path d="M24,48 C37.2552,48 48,37.2552 48,24 C48,10.7448 37.2552,0 24,0 C10.7448,0 0,10.7448 0,24 C0,37.2552 10.7448,48 24,48 Z M24.3528979,22.2299765 L16.7595141,14.6369589 C15.963097,13.8383925 15.2222827,13.8154868 14.4974902,14.4296225 C13.7726977,15.0437582 13.9375537,16.0471152 14.3727954,16.496517 L22.2249682,24.343746 L14.5037158,32.0674399 C13.7781456,32.7949682 13.9458544,33.7125204 14.4392626,34.2443808 C14.9326708,34.7762412 15.9934008,34.9267538 16.7512744,34.0698813 L24.3382495,26.4858969 L31.981621,34.1089438 C32.7780381,34.9075102 33.5898974,34.8343466 34.1933347,34.2552795 C34.796772,33.6762124 34.9135187,32.812668 34.1183231,32.0153264 L26.4613005,24.346281 L34.0048754,16.8248862 C34.8162768,16.1279868 34.9043097,15.0655787 34.3015063,14.4849204 C33.3827441,13.5999106 32.4530774,14.1466814 32.0377123,14.5631674 L24.3528979,22.2299765 Z" id="Combined-Shape"></path>
        </g>
    </g>
</svg>

<svg width="48" height="48" viewBox="0 0 48 48" xmlns="http://www.w3.org/2000/svg"><title>step-48-错误-实心</title><path d="M24 48c13.255 0 24-10.745 24-24S37.255 0 24 0 0 10.745 0 24s10.745 24 24 24zm.353-25.77l-7.593-7.593c-.797-.799-1.538-.822-2.263-.207-.724.614-.56 1.617-.124 2.067l7.852 7.847-7.721 7.723c-.726.728-.558 1.646-.065 2.177.494.532 1.554.683 2.312-.174l7.587-7.584 7.644 7.623c.796.799 1.608.725 2.211.146.604-.579.72-1.442-.075-2.24l-7.657-7.669 7.544-7.521c.811-.697.9-1.76.297-2.34-.92-.885-1.849-.338-2.264.078l-7.685 7.667z" fill-rule="evenodd"/></svg>
